X:1
T:Title
%%score { ( 1 4 ) | ( 2 3 ) }
L:1/8
Q:1/4=100
M:4/4
K:Bb
V:1 treble nm="Grand Piano"
V:4 treble 
V:2 bass 
V:3 bass 
V:1
 [DF]2 [FB]2 BAGF | [B,DF]2 [B,FB]2 d2 c2 | e2 d2 dc .[D^FB]2 | [CEG]2 [CEA]2 [DB]4 | %4
w: Geo.~C.~Hugg * * * * *||||
 [DF]2 [FB]2 BAGF | [B,DF]2 [B,FB]2 d2 c2 | e2 d2 dc .[D^FB]2 | [CEG]2 [CEA]2 [B,DB]4 | %8
w: ||||
 [Af]2 =e2 _e2 d2 | c2 [=EB]2 AG F2 | [Ge]2 [Gd]2 [CGc]2 .[=B,DB]2 | [CFA]2 [B,=EG]2 [A,F]4 | %12
w: ||||
 [B,DF]2 [B,FB]2 BAGF | [B,DF]2 [B,FB]2 [Fd]2 [Fc]2 | [^Fe]2 [Gd]2 dcBG | [CEF]2 [Ec]2 [DB]4 |] %16
w: ||||
V:2
 z4 z2 .B,2 | B,,2 D,2[K:treble] [F,B,F]2 [F,A,F]2 | [A,C^F]2 [B,DG]2 [A,DF]2[K:bass] z A | %3
 E,C, F,2 [B,,B,]4 | z4 z2 .B,2 | B,,2 D,2[K:treble] [F,B,F]2 [F,A,F]2 | %6
 [A,C^F]2 [B,DG]2 [A,DF]2[K:bass] z A | E,C, F,2 B,,4 | %8
 [F,C]2[K:treble] [G,B,G]2 [A,C^F]2 [B,D=F]2 | [CEG]2[K:bass] [C,C]2 [CF][B,=E] [F,A,]2 | %10
 [C,C]2 [D,=B,]2 E,2 z =E | C,2 C,2 F,4 | z4 z2 .B,2 | B,,2 D,2 [F,B,]2 [F,A,]2 | %14
 [D,C]2 [G,B,]2 [E,E]2 [=E,_D]-[E,B,D] | F,A, [F,A,]2 [B,,B,]4 |] %16
V:3
 [B,,B,]2 [D,B,]2 [F,CE]2 [F,E]-[F,A,E] | x4[K:treble] x4 | z4 z2[K:bass] D,2 | x8 | %4
 [B,,B,]2 [D,B,]2 [F,CE]2 [F,E]-[F,A,E] | x4[K:treble] x4 | z4 z2[K:bass] D,2 | x8 | %8
 x2[K:treble] x6 | z4[K:bass] F,2 z2 | z4 z2 G,2 | x8 | B,,2 D,2 [F,CE]2 [F,E]-[F,A,E] | x8 | %14
 z4 z2 .G,2 | x8 |] %16
V:4
 x8 | x8 | x8 | x8 | x8 | x8 | x8 | x8 | x8 | x8 | x8 | x8 | x8 | x8 | z4 G2 z2 | x8 |] %16

